build/img/partners/utkonos.svg

<svg width="157" height="40" viewBox="0 0 157 40" fill="none" xmlns="http://www.w3.org/2000/svg">
<path fill-rule="evenodd" clip-rule="evenodd" d="M154.369 17.7089C155.279 17.7089 156.079 16.9366 156.079 15.9851C156.079 15.0471 155.279 14.302 154.369 14.302C153.431 14.302 152.645 15.0471 152.645 15.9851C152.645 16.9366 153.431 17.7089 154.369 17.7089ZM154.369 11.5988C155.279 11.5988 156.079 10.8542 156.079 9.87507C156.079 8.93706 155.279 8.17853 154.369 8.17853C153.431 8.17853 152.645 8.93706 152.645 9.87507C152.645 10.8542 153.431 11.5988 154.369 11.5988ZM101.158 12.9508C101.158 15.1437 99.6406 16.7987 97.4061 16.7987C95.1716 16.7987 93.6546 15.1437 93.6546 12.9508C93.6546 10.7576 95.1716 9.08891 97.4061 9.08891C99.6406 9.08891 101.158 10.7576 101.158 12.9508ZM90.2204 12.9508C90.2204 17.0607 93.2682 20.1089 97.4061 20.1089C101.544 20.1089 104.592 17.0471 104.592 12.9508C104.592 8.84048 101.516 5.77825 97.4061 5.77825C93.2682 5.77825 90.2204 8.84048 90.2204 12.9508ZM86 19.6125C86.6344 20.2604 87.6961 20.2882 88.3446 19.6399C88.9789 19.0195 89.0479 17.9434 88.4136 17.2953L84.0964 12.8402L88.2482 8.55072C88.8684 7.90271 88.8134 6.84048 88.1788 6.23356C87.5445 5.58508 86.4823 5.61318 85.8614 6.26119L81.5726 10.6745C81.2002 11.0613 80.9378 11.1161 80.6622 11.1161C80.235 11.1161 79.8758 10.8265 79.8758 10.3852V7.43346C79.8758 6.50939 79.1034 5.76456 78.1793 5.76456C77.2557 5.76456 76.483 6.50939 76.483 7.43346V18.4399C76.483 19.3642 77.2557 20.1089 78.1793 20.1089C79.1034 20.1089 79.8758 19.3642 79.8758 18.4399V15.3088C79.8758 14.8816 80.235 14.592 80.6622 14.592C80.9378 14.592 81.2002 14.6475 81.5726 15.0329L86 19.6125ZM148.479 9.28161C149.417 9.28161 150.162 8.55072 150.162 7.62688C150.162 6.73019 149.417 5.97143 148.479 5.97143H145.914C141.721 5.97143 138.742 8.9647 138.742 12.9782C138.742 16.9918 141.721 19.9845 145.914 19.9845H148.479C149.417 19.9845 150.162 19.2536 150.162 18.3296C150.162 17.4332 149.417 16.6744 148.479 16.6744H145.817C143.583 16.6744 142.107 15.1024 142.107 12.9782C142.107 10.8542 143.583 9.28161 145.817 9.28161H148.479ZM133.335 12.9508C133.335 15.1437 131.818 16.7987 129.584 16.7987C127.349 16.7987 125.832 15.1437 125.832 12.9508C125.832 10.7576 127.349 9.08891 129.584 9.08891C131.818 9.08891 133.335 10.7576 133.335 12.9508ZM122.398 12.9508C122.398 17.0607 125.446 20.1089 129.584 20.1089C133.722 20.1089 136.77 17.0471 136.77 12.9508C136.77 8.84048 133.694 5.77825 129.584 5.77825C125.446 5.77825 122.398 8.84048 122.398 12.9508ZM54.6984 13.4191L50.7187 6.60598C50.2631 5.83375 49.2982 5.55768 48.4705 5.93033C47.6288 6.4128 47.3676 7.43347 47.8499 8.24726L52.6067 16.2796C52.0315 16.6607 51.409 16.7947 50.7324 16.854C49.8083 16.9366 49.1874 17.5985 49.1874 18.4675C49.1874 19.5021 50.0291 20.0814 50.8845 20.0814C52.8148 20.0814 54.4976 19.1021 55.7112 17.7364C56.815 16.4951 57.6564 14.9229 58.4424 13.4469L61.2422 8.19223C61.6697 7.37844 61.408 6.31621 60.5385 5.90247C59.7252 5.51612 58.7321 5.86114 58.3047 6.66124L54.6984 13.4191ZM66.6769 9.26792V18.4399C66.6769 19.3778 67.4626 20.1089 68.401 20.1089C69.3523 20.1089 70.1245 19.3778 70.1245 18.4399V9.26792H72.6896C73.6281 9.26792 74.3864 8.52309 74.3864 7.58555C74.3864 6.67493 73.6281 5.91617 72.6896 5.91617H64.0973C63.1591 5.91617 62.4006 6.67493 62.4006 7.58555C62.4006 8.52309 63.1591 9.26792 64.0973 9.26792H66.6769ZM107.296 18.4399C107.309 19.3642 108.082 20.1089 109.005 20.1089C109.93 20.1089 110.702 19.3642 110.702 18.4399V14.6194H116.288V18.4399C116.288 19.3642 117.074 20.1089 117.998 20.1089C118.922 20.1089 119.695 19.3642 119.695 18.4399V7.43346C119.695 6.50939 118.909 5.76456 117.984 5.76456C117.06 5.76456 116.288 6.50939 116.288 7.43346V11.2537H110.688V7.43346C110.688 6.50939 109.916 5.76456 108.992 5.76456C108.068 5.76456 107.296 6.50939 107.296 7.43346V18.4399Z" fill="#0DB14B"/>
<path d="M49.1165 31.4192L51.6131 27.9644C51.7213 27.8174 51.8604 27.7015 52.0613 27.7015C52.3782 27.7015 52.502 27.9178 52.502 28.1807V32.5632C52.502 32.8183 52.3629 33.0348 52.046 33.0348C51.7213 33.0348 51.5744 32.8183 51.5744 32.5632V29.3324L49.0624 32.7642C48.9618 32.8958 48.8227 33.0348 48.6295 33.0348C48.3435 33.0348 48.1888 32.857 48.1888 32.5632V28.1807C48.1888 27.9256 48.3282 27.7015 48.6526 27.7015C48.9696 27.7015 49.1165 27.9256 49.1165 28.1807V31.4192Z" fill="black"/>
<path d="M54.0024 31.9606C54.3502 31.9606 54.5434 32.2156 54.5434 32.5016C54.5434 32.7951 54.3502 33.0348 54.0024 33.0348C53.6545 33.0348 53.4691 32.7951 53.4691 32.5016C53.4691 32.2156 53.6545 31.9606 54.0024 31.9606Z" fill="black"/>
<path d="M55.8576 31.9606C56.2054 31.9606 56.3986 32.2156 56.3986 32.5016C56.3986 32.7951 56.2054 33.0348 55.8576 33.0348C55.5097 33.0348 55.3243 32.7951 55.3243 32.5016C55.3243 32.2156 55.5097 31.9606 55.8576 31.9606Z" fill="black"/>
<path d="M60.1555 31.4192L62.6522 27.9644C62.7603 27.8174 62.8994 27.7015 63.1004 27.7015C63.4173 27.7015 63.541 27.9178 63.541 28.1807V32.5632C63.541 32.8183 63.402 33.0348 63.085 33.0348C62.7603 33.0348 62.6134 32.8183 62.6134 32.5632V29.3324L60.1014 32.7642C60.0008 32.8958 59.8617 33.0348 59.6686 33.0348C59.3826 33.0348 59.2279 32.857 59.2279 32.5632V28.1807C59.2279 27.9256 59.3672 27.7015 59.6917 27.7015C60.0086 27.7015 60.1555 27.9256 60.1555 28.1807V31.4192Z" fill="black"/>
<path d="M65.2736 31.9606C65.6212 31.9606 65.8146 32.2156 65.8146 32.5016C65.8146 32.7951 65.6212 33.0348 65.2736 33.0348C64.9255 33.0348 64.7401 32.7951 64.7401 32.5016C64.7401 32.2156 64.9255 31.9606 65.2736 31.9606Z" fill="black"/>
<path d="M67.3607 31.9606C67.7086 31.9606 67.9018 32.2156 67.9018 32.5016C67.9018 32.7951 67.7086 33.0348 67.3607 33.0348C67.0129 33.0348 66.8275 32.7951 66.8275 32.5016C66.8275 32.2156 67.0129 31.9606 67.3607 31.9606Z" fill="black"/>
<path d="M73.4984 32.285C74.5495 32.285 75.0674 31.4427 75.0674 30.3682C75.0674 29.3014 74.5495 28.4513 73.4984 28.4513C72.4548 28.4513 71.9369 29.3014 71.9369 30.3682C71.9369 31.4427 72.4548 32.285 73.4984 32.285ZM73.4984 27.6242C75.1756 27.6242 76.0413 28.8376 76.0413 30.3682C76.0413 31.9062 75.1756 33.112 73.4984 33.112C71.821 33.112 70.963 31.9062 70.963 30.3682C70.963 28.8376 71.821 27.6242 73.4984 27.6242Z" fill="black"/>
<path d="M80.3551 30.7238H77.8972V32.5632C77.8972 32.826 77.7347 33.0348 77.4334 33.0348C77.1243 33.0348 76.9696 32.826 76.9696 32.5632V28.1807C76.9696 27.9178 77.1243 27.7015 77.4334 27.7015C77.7347 27.7015 77.8972 27.9178 77.8972 28.1807V29.8965H80.3551V28.1807C80.3551 27.9178 80.5098 27.7015 80.8189 27.7015C81.1203 27.7015 81.2827 27.9178 81.2827 28.1807V32.5632C81.2827 32.826 81.1203 33.0348 80.8189 33.0348C80.5098 33.0348 80.3551 32.826 80.3551 32.5632V30.7238Z" fill="black"/>
<path d="M85.8208 27.7015C86.13 27.7015 86.2847 27.9178 86.2847 28.1807V32.5632C86.2847 32.826 86.13 33.0348 85.8208 33.0348C85.5117 33.0348 85.357 32.826 85.357 32.5632V28.5285H83.9271C83.9118 29.464 83.8499 30.9014 83.5715 31.8909C83.3939 32.5248 82.9997 33.0733 82.389 33.0733C81.9408 33.0733 81.7321 32.8029 81.8171 32.4706C81.8787 32.2156 82.0799 32.1925 82.2653 32.1925C82.4587 32.1925 82.6441 32.0378 82.7523 31.6746C82.9532 31.0329 83.0538 29.858 83.077 28.1807C83.0845 27.8871 83.247 27.7015 83.5174 27.7015H85.8208Z" fill="black"/>
<path d="M88.5963 30.801H90.0727L89.3229 28.8532L88.5963 30.801ZM90.3356 31.5276H88.349L87.9471 32.6173C87.8543 32.8879 87.6536 33.1352 87.3133 32.9961C87.0738 32.8958 87.0582 32.6251 87.1588 32.3622L88.8979 28.003C88.9982 27.7402 89.1529 27.6243 89.3692 27.6243C89.6089 27.6243 89.7402 27.7711 89.8177 27.9566L91.6108 32.3548C91.7036 32.5864 91.6727 32.8958 91.4023 32.9961C91.1085 33.1043 90.8766 32.9651 90.7684 32.6716L90.3356 31.5276Z" fill="black"/>
<path d="M93.3814 26.8667C93.2657 26.712 93.2501 26.519 93.3814 26.3953C93.5592 26.225 93.7371 26.3334 93.8839 26.4725C94.1003 26.6813 94.3246 26.7663 94.6028 26.7663C94.881 26.7663 95.0975 26.6889 95.3139 26.4804C95.4608 26.3334 95.6386 26.2406 95.8162 26.3953C95.9631 26.519 95.9246 26.712 95.8086 26.8667C95.6152 27.1295 95.1901 27.3614 94.6028 27.3614C94.0155 27.3614 93.5748 27.1295 93.3814 26.8667ZM93.4048 31.4192L95.9012 27.9644C96.0096 27.8174 96.1487 27.7015 96.3496 27.7015C96.6666 27.7015 96.7903 27.9178 96.7903 28.1807V32.5632C96.7903 32.8183 96.651 33.0348 96.3341 33.0348C96.0096 33.0348 95.8627 32.8183 95.8627 32.5632V29.3324L93.3507 32.7642C93.2501 32.8958 93.111 33.0348 92.9178 33.0348C92.6319 33.0348 92.4772 32.857 92.4772 32.5632V28.1807C92.4772 27.9256 92.6163 27.7015 92.941 27.7015C93.2579 27.7015 93.4048 27.9256 93.4048 28.1807V31.4192Z" fill="black"/>
<path d="M101.491 30.7238H99.0327V32.5632C99.0327 32.826 98.8705 33.0348 98.5689 33.0348C98.2598 33.0348 98.1051 32.826 98.1051 32.5632V28.1807C98.1051 27.9178 98.2598 27.7015 98.5689 27.7015C98.8705 27.7015 99.0327 27.9178 99.0327 28.1807V29.8965H101.491V28.1807C101.491 27.9178 101.645 27.7015 101.954 27.7015C102.256 27.7015 102.418 27.9178 102.418 28.1807V32.5632C102.418 32.826 102.256 33.0348 101.954 33.0348C101.645 33.0348 101.491 32.826 101.491 32.5632V30.7238Z" fill="black"/>
<path fill-rule="evenodd" clip-rule="evenodd" d="M36.9995 4.33253C36.9995 1.94003 35.0362 -1.68482e-06 32.6147 -1.68482e-06H4.38498C1.96341 -1.68482e-06 0 1.94003 0 4.33253V21.7217C0 31.8164 8.28241 40 18.4996 40C28.7172 40 36.9995 31.8164 36.9995 21.7217C36.9988 14.8004 37.0009 11.2541 36.9995 4.33253Z" fill="#FFC709"/>
<path fill-rule="evenodd" clip-rule="evenodd" d="M23.2726 26.5552C23.2726 25.613 22.495 24.8516 21.5523 24.8516C20.609 24.8516 19.8314 25.613 19.8314 26.5552C19.8314 27.4984 20.609 28.2756 21.5523 28.2756C22.495 28.2756 23.2726 27.4984 23.2726 26.5552ZM17.1681 26.5552C17.1681 25.613 16.391 24.8516 15.4312 24.8516C14.4883 24.8516 13.7274 25.613 13.7274 26.5552C13.7274 27.4984 14.4883 28.2756 15.4312 28.2756C16.391 28.2756 17.1681 27.4984 17.1681 26.5552Z" fill="black"/>
</svg>

<svg width="157" height="40" fill="none" xmlns="http://www.w3.org/2000/svg"><path fill-rule="evenodd" clip-rule="evenodd" d="M154.369 17.709c.91 0 1.71-.772 1.71-1.724 0-.938-.8-1.683-1.71-1.683-.938 0-1.724.745-1.724 1.683 0 .952.786 1.724 1.724 1.724zm0-6.11c.91 0 1.71-.745 1.71-1.724 0-.938-.8-1.696-1.71-1.696-.938 0-1.724.758-1.724 1.696 0 .98.786 1.724 1.724 1.724zm-53.211 1.352c0 2.193-1.517 3.848-3.752 3.848-2.234 0-3.751-1.655-3.751-3.848 0-2.193 1.517-3.862 3.751-3.862 2.235 0 3.752 1.669 3.752 3.862zm-10.938 0c0 4.11 3.048 7.158 7.186 7.158s7.186-3.062 7.186-7.158c0-4.11-3.076-7.173-7.186-7.173-4.138 0-7.186 3.062-7.186 7.173zM86 19.613c.634.647 1.696.675 2.345.027.634-.62.703-1.697.069-2.345l-4.318-4.455 4.152-4.29c.62-.647.565-1.71-.07-2.316-.633-.649-1.696-.62-2.317.027l-4.288 4.413c-.373.387-.635.442-.91.442-.428 0-.787-.29-.787-.73V7.432c0-.924-.773-1.668-1.697-1.668-.923 0-1.696.744-1.696 1.668V18.44c0 .924.773 1.669 1.696 1.669.924 0 1.697-.745 1.697-1.67v-3.13c0-.427.359-.717.786-.717.276 0 .538.056.91.44L86 19.613zm62.479-10.331c.938 0 1.683-.731 1.683-1.655 0-.897-.745-1.656-1.683-1.656h-2.565c-4.193 0-7.172 2.994-7.172 7.007 0 4.014 2.979 7.007 7.172 7.007h2.565c.938 0 1.683-.731 1.683-1.655 0-.897-.745-1.656-1.683-1.656h-2.662c-2.234 0-3.71-1.572-3.71-3.696s1.476-3.696 3.71-3.696h2.662zm-15.144 3.669c0 2.193-1.517 3.848-3.751 3.848-2.235 0-3.752-1.655-3.752-3.848 0-2.193 1.517-3.862 3.752-3.862 2.234 0 3.751 1.669 3.751 3.862zm-10.937 0c0 4.11 3.048 7.158 7.186 7.158s7.186-3.062 7.186-7.158c0-4.11-3.076-7.173-7.186-7.173-4.138 0-7.186 3.062-7.186 7.173zm-67.7.468l-3.98-6.813c-.455-.772-1.42-1.048-2.248-.676a1.661 1.661 0 00-.62 2.317l4.757 8.033c-.575.38-1.198.515-1.875.574-.924.083-1.545.745-1.545 1.614 0 1.034.842 1.613 1.698 1.613 1.93 0 3.613-.979 4.826-2.345 1.104-1.24 1.945-2.813 2.731-4.29l2.8-5.254c.428-.814.166-1.876-.703-2.29-.814-.386-1.807-.04-2.234.76l-3.607 6.757zm11.979-4.151v9.172c0 .938.786 1.669 1.724 1.669.951 0 1.724-.731 1.724-1.67v-9.17h2.565c.938 0 1.696-.745 1.696-1.682 0-.911-.758-1.67-1.696-1.67h-8.593c-.938 0-1.696.759-1.696 1.67 0 .937.758 1.682 1.696 1.682h2.58zm40.619 9.172c.013.924.786 1.669 1.709 1.669.925 0 1.697-.745 1.697-1.67v-3.82h5.586v3.82c0 .925.786 1.67 1.71 1.67.924 0 1.697-.745 1.697-1.67V7.434c0-.924-.786-1.668-1.711-1.668-.924 0-1.696.744-1.696 1.668v3.82h-5.6v-3.82c0-.924-.772-1.668-1.696-1.668-.924 0-1.696.744-1.696 1.668V18.44z" fill="#0DB14B"/><path d="M49.117 31.42l2.496-3.456c.108-.147.247-.262.448-.262.317 0 .441.216.441.479v4.382c0 .255-.14.472-.456.472-.325 0-.472-.217-.472-.472v-3.23l-2.512 3.431c-.1.132-.24.27-.432.27-.287 0-.441-.177-.441-.47V28.18c0-.255.14-.48.464-.48.317 0 .464.225.464.48v3.238zm4.885.54c.348 0 .541.256.541.542 0 .293-.193.533-.54.533-.349 0-.534-.24-.534-.533 0-.286.185-.541.533-.541zm1.856 0c.347 0 .54.256.54.542 0 .293-.193.533-.54.533-.348 0-.534-.24-.534-.533 0-.286.186-.541.534-.541zm4.298-.54l2.496-3.456c.108-.147.247-.262.448-.262.317 0 .441.216.441.479v4.382c0 .255-.139.472-.456.472-.325 0-.472-.217-.472-.472v-3.23l-2.512 3.431c-.1.132-.24.27-.432.27-.286 0-.441-.177-.441-.47V28.18c0-.255.14-.48.464-.48.317 0 .464.225.464.48v3.238zm5.118.54c.347 0 .54.256.54.542 0 .293-.193.533-.54.533-.349 0-.534-.24-.534-.533 0-.286.186-.541.534-.541zm2.086 0c.349 0 .542.256.542.542 0 .293-.193.533-.541.533-.348 0-.534-.24-.534-.533 0-.286.186-.541.534-.541zm6.138.325c1.051 0 1.57-.842 1.57-1.917 0-1.067-.519-1.917-1.57-1.917-1.043 0-1.561.85-1.561 1.917 0 1.075.518 1.917 1.561 1.917zm0-4.66c1.678 0 2.543 1.213 2.543 2.743 0 1.538-.865 2.744-2.543 2.744-1.677 0-2.535-1.206-2.535-2.744 0-1.53.858-2.744 2.535-2.744zm6.857 3.099h-2.458v1.84c0 .262-.162.47-.464.47-.309 0-.463-.208-.463-.47V28.18c0-.263.154-.48.463-.48.302 0 .464.217.464.48v1.715h2.458V28.18c0-.263.155-.48.464-.48.301 0 .464.217.464.48v4.382c0 .263-.163.472-.464.472-.31 0-.464-.209-.464-.472v-1.84zm5.465-3.023c.31 0 .465.217.465.48v4.382c0 .263-.155.472-.464.472-.31 0-.464-.209-.464-.472v-4.035h-1.43c-.015.936-.077 2.373-.356 3.363-.177.634-.571 1.182-1.182 1.182-.448 0-.657-.27-.572-.602.062-.255.263-.278.448-.278.194 0 .38-.155.487-.518.201-.642.302-1.817.325-3.494.008-.294.17-.48.44-.48h2.304zm2.776 3.1h1.477l-.75-1.948-.727 1.948zm1.74.727h-1.987l-.402 1.09c-.093.27-.293.517-.634.378-.24-.1-.255-.37-.154-.634l1.739-4.359c.1-.263.255-.379.471-.379.24 0 .371.147.449.333l1.793 4.398c.093.231.062.54-.209.641-.293.108-.525-.03-.634-.324l-.432-1.144zm3.045-4.661c-.115-.155-.13-.348 0-.472.178-.17.356-.062.503.078.216.208.44.293.719.293a.945.945 0 00.71-.286c.148-.147.326-.24.503-.085.147.124.109.317-.007.472-.194.262-.619.494-1.206.494s-1.028-.232-1.222-.494zm.024 4.552l2.496-3.455c.109-.147.248-.262.449-.262.317 0 .44.216.44.479v4.382c0 .255-.139.472-.456.472-.324 0-.471-.217-.471-.472v-3.23l-2.512 3.431c-.1.132-.24.27-.433.27-.286 0-.44-.177-.44-.47V28.18c0-.255.138-.48.463-.48.317 0 .464.225.464.48v3.238zm8.086-.695h-2.458v1.84c0 .262-.162.47-.464.47-.31 0-.464-.208-.464-.47V28.18c0-.263.155-.48.464-.48.302 0 .464.217.464.48v1.715h2.458V28.18c0-.263.154-.48.463-.48.302 0 .464.217.464.48v4.382c0 .263-.162.472-.464.472-.309 0-.463-.209-.463-.472v-1.84z" fill="#000"/><path fill-rule="evenodd" clip-rule="evenodd" d="M37 4.333C37 1.94 35.035 0 32.614 0H4.385C1.963 0 0 1.94 0 4.333v17.389C0 31.816 8.282 40 18.5 40 28.717 40 37 31.816 37 21.722V4.332z" fill="#FFC709"/><path fill-rule="evenodd" clip-rule="evenodd" d="M23.273 26.555c0-.942-.778-1.703-1.72-1.703-.944 0-1.722.761-1.722 1.703 0 .943.778 1.72 1.721 1.72a1.73 1.73 0 001.72-1.72zm-6.105 0c0-.942-.777-1.703-1.737-1.703-.943 0-1.704.761-1.704 1.703 0 .943.761 1.72 1.704 1.72.96 0 1.737-.777 1.737-1.72z" fill="#000"/></svg>
